public/icon/icon-arrow-right.svg

<svg width="14" height="14" viewBox="0 0 14 14" fill="none" xmlns="http://www.w3.org/2000/svg">
<g clip-path="url(#clip0_2526_5001)">
<path d="M1.16715 8.16427L10.0258 8.16427L6.17423 12.001C5.95445 12.2206 5.83098 12.5185 5.83098 12.829C5.83098 13.1396 5.95445 13.4374 6.17423 13.657C6.39401 13.8766 6.6921 14 7.00291 14C7.31372 14 7.61181 13.8766 7.83159 13.657L13.6673 7.82608C13.7736 7.71517 13.8569 7.58439 13.9124 7.44124C14.0292 7.15731 14.0292 6.83885 13.9124 6.55493C13.8569 6.41178 13.7736 6.281 13.6673 6.17009L7.83159 0.339137C7.72309 0.229832 7.594 0.143072 7.45177 0.0838665C7.30954 0.0246605 7.15699 -0.00582087 7.00291 -0.00582089C6.84883 -0.0058209 6.69628 0.0246604 6.55405 0.0838664C6.41182 0.143071 6.28274 0.229832 6.17423 0.339137C6.06484 0.447549 5.97801 0.576531 5.91875 0.718642C5.8595 0.860752 5.82899 1.01318 5.82899 1.16713C5.82899 1.32108 5.8595 1.47351 5.91875 1.61562C5.97801 1.75773 6.06484 1.88671 6.17423 1.99513L10.0258 5.83189L1.16715 5.83189C0.857605 5.83189 0.560734 5.95476 0.341851 6.17346C0.122967 6.39217 6.39166e-07 6.68879 6.12127e-07 6.99808C5.85088e-07 7.30738 0.122967 7.604 0.341851 7.8227C0.560734 8.04141 0.857605 8.16427 1.16715 8.16427Z" fill="#666F0F"/>
</g>
<defs>
<clipPath id="clip0_2526_5001">
<rect width="14" height="14" fill="white"/>
</clipPath>
</defs>
</svg>

<svg width="14" height="14" fill="none" xmlns="http://www.w3.org/2000/svg"><g clip-path="url(#clip0_2526_5001)"><path d="M1.167 8.164h8.859l-3.852 3.837a1.17 1.17 0 101.658 1.656l5.835-5.83c.107-.112.19-.243.245-.386a1.165 1.165 0 000-.886 1.165 1.165 0 00-.245-.385L7.832.34a1.167 1.167 0 00-1.658 0 1.166 1.166 0 000 1.655l3.852 3.837H1.167a1.168 1.168 0 00-.825 1.99c.219.22.516.342.825.342z" fill="#666F0F"/></g><defs><clipPath id="clip0_2526_5001"><path fill="#fff" d="M0 0h14v14H0z"/></clipPath></defs></svg>
